X: 773
T: Xuan zhong
L: 1/8
M: 2/4
K: A
B B B c [I:setbarnb 1]| 
B A F A | 
B B c A | 
B2z2 | 
E2E F | 
A2B F | 
A> A B F | 
A2z2 | 
A B c e | 
B3c | 
E> F A G | 
F4 | 
F2F G | 
F E D C | 
E2E2 | 
F B G F | 
E E F C | 
E4 |]

@@@ Tune index: 9647
